packages/core/src/svgs/doga.svg

<svg width="24" height="24" viewBox="0 0 24 24" fill="none" xmlns="http://www.w3.org/2000/svg">
<g clip-path="url(#clip0_31_9309)">
<path d="M0 0H24V24H0V0Z" fill="url(#paint0_linear_31_9309)"/>
<path fill-rule="evenodd" clip-rule="evenodd" d="M11.357 8.57129H6.42847V18.4284H11.357C12.0043 18.4284 12.6452 18.301 13.2431 18.0533C13.8411 17.8056 14.3844 17.4425 14.8421 16.9849C15.2997 16.5272 15.6628 15.9839 15.9104 15.3859C16.1581 14.788 16.2856 14.1471 16.2856 13.4999C16.2856 12.8526 16.1581 12.2117 15.9104 11.6138C15.6628 11.0158 15.2997 10.4725 14.8421 10.0148C14.3844 9.55717 13.8411 9.19414 13.2431 8.94645C12.6452 8.69877 12.0043 8.57129 11.357 8.57129ZM11.357 9.857H7.71418V17.1427H11.357C12.3232 17.1427 13.2498 16.7589 13.9329 16.0757C14.6161 15.3926 14.9999 14.466 14.9999 13.4999C14.9999 12.5337 14.6161 11.6071 13.9329 10.924C13.2498 10.2408 12.3232 9.857 11.357 9.857Z" fill="white"/>
<path d="M16.063 14.9702L14.4515 15.4288C14.3787 15.5445 14.2972 15.6559 14.2158 15.7588L15.0601 16.7488C15.5101 16.2388 15.8572 15.6345 16.063 14.9702Z" fill="#B2B2B2"/>
<path fill-rule="evenodd" clip-rule="evenodd" d="M13.9286 6H9V15.8571H13.9286C15.2357 15.8571 16.4893 15.3379 17.4136 14.4136C18.3379 13.4893 18.8571 12.2357 18.8571 10.9286C18.8571 9.62143 18.3379 8.36783 17.4136 7.44355C16.4893 6.51926 15.2357 6 13.9286 6ZM13.9286 7.28571H10.2857V14.5714H13.9286C14.8947 14.5714 15.8213 14.1876 16.5045 13.5045C17.1876 12.8213 17.5714 11.8947 17.5714 10.9286C17.5714 9.96243 17.1876 9.03585 16.5045 8.35268C15.8213 7.66951 14.8947 7.28571 13.9286 7.28571Z" fill="white"/>
<path d="M10.2857 11.1426L9 9.85693H10.2857V11.1426Z" fill="#B2B2B2"/>
</g>
<defs>
<linearGradient id="paint0_linear_31_9309" x1="3.64286" y1="4.28571" x2="19.9286" y2="19.5" gradientUnits="userSpaceOnUse">
<stop stop-color="#422C81"/>
<stop offset="1" stop-color="#7B368A"/>
</linearGradient>
<clipPath id="clip0_31_9309">
<rect width="24" height="24" fill="white"/>
</clipPath>
</defs>
</svg>

<svg xmlns="http://www.w3.org/2000/svg" width="24" height="24" fill="none" viewBox="0 0 24 24"><g clip-path="url(#a)"><path fill="url(#b)" d="M0 0h24v24H0z"/><path fill="#fff" fill-rule="evenodd" d="M11.357 8.571H6.428v9.857h4.929a4.928 4.928 0 1 0 0-9.857m0 1.286H7.714v7.286h3.643a3.643 3.643 0 1 0 0-7.286" clip-rule="evenodd"/><path fill="#B2B2B2" d="m16.063 14.97-1.611.459a4 4 0 0 1-.236.33l.844.99c.45-.51.797-1.114 1.003-1.779"/><path fill="#fff" fill-rule="evenodd" d="M13.929 6H9v9.857h4.929a4.929 4.929 0 1 0 0-9.857m0 1.286h-3.643v7.285h3.643a3.643 3.643 0 0 0 0-7.285" clip-rule="evenodd"/><path fill="#B2B2B2" d="M10.286 11.143 9 9.857h1.286z"/></g><defs><linearGradient id="b" x1="3.643" x2="19.929" y1="4.286" y2="19.5" gradientUnits="userSpaceOnUse"><stop stop-color="#422C81"/><stop offset="1" stop-color="#7B368A"/></linearGradient><clipPath id="a"><path fill="#fff" d="M0 0h24v24H0z"/></clipPath></defs></svg>
